X: 1
T:The Fairy Dance  "CYMRU"
M:C
L:1/8
Q:80
C:Trad.
S:Reel
K:HP
[| e|
{g}f2{g}f3/2d/2{g}f2{g}f3/2d/2|
{g}f2{g}f3/2d/2{g}c3/2d/2{g}e/2g3/2|
{a}f2{g}f/2a3/2g3/2f/2{gef}e3/2d/2|  !
{g}c/2{d}A3/2{g}Bc{Gdc}d2{gdc}d3/2e/2| |
{g}f2{g}f3/2d/2{g}f2{g}f3/2d/2|
{g}f2{g}f3/2d/2{g}c3/2d/2{g}e/2g3/2|  !
{a}f2{g}f/2a3/2g3/2f/2{gef}e3/2d/2|
{g}c/2{d}A3/2{g}Bc{Gdc}d3/2e/2{g}fg| |
| {ag}a3f{gf}g3a|  !
g3/2{a}f/2g3/2e/2{ag}a2g|
{a}f2{g}f/2a3/2g3/2f/2{gef}e3/2d/2|
{g}c/2{d}A3/2{g}Bc{Gdc}d3/2e/2{g}fg| |  !
{ag}a3f{gf}g3a|
g3/2{a}f/2g3/2e/2{ag}a2g|
{a}f2{g}f/2a3/2g3/2f/2{gef}e3/2d/2|  !
{g}c/2{d}A3/2{g}Bc{Gdc}d2{gdc}d|]
